icon/pk/airplane-window.svg

<svg width="48" height="48" fill="none" xmlns="http://www.w3.org/2000/svg"><path d="M10 18c0-7.732 6.268-14 14-14s14 6.268 14 14v12c0 7.732-6.268 14-14 14s-14-6.268-14-14V18Z" fill="#2F88FF" stroke="#000" stroke-width="4" stroke-linecap="round" stroke-linejoin="round"/><path d="M10 17h28M22 11h4M10 26s5.4-.6 7 1c1.6 1.6 1 3.369 1 3.369 3 0 6 .158 6 3.631 0 2.5-4 4-6.5 2.369C17.5 38.5 17 40 14 40M38 23s-3.5-2-5-1-1 3-1 3c-1.5-1-4 0-4 2.5s2.5 3.5 5 2.5c1 3 3.5 3 5 2" stroke="#fff" stroke-width="4" stroke-linecap="round" stroke-linejoin="round"/><path d="M25 44v0c7.18 0 13-5.82 13-13V18c0-7.732-6.268-14-14-14v0M23 44v0c-7.18 0-13-5.82-13-13V18c0-7.732 6.268-14 14-14v0" stroke="#000" stroke-width="4" stroke-linecap="round" stroke-linejoin="round"/></svg>

<svg viewBox="0 0 48 48" fill="none" xmlns="http://www.w3.org/2000/svg" height="1em" width="1em">
  <path d="M10 18C10 10.268 16.268 4 24 4C31.732 4 38 10.268 38 18V30C38 37.732 31.732 44 24 44C16.268 44 10 37.732 10 30V18Z" fill="#2F88FF" stroke="black" stroke-width="4" stroke-linecap="round" stroke-linejoin="round"/>
  <path d="M10 17L38 17" stroke="white" stroke-width="4" stroke-linecap="round" stroke-linejoin="round"/>
  <path d="M22 11L26 11" stroke="white" stroke-width="4" stroke-linecap="round" stroke-linejoin="round"/>
  <path d="M10 26C10 26 15.4 25.4 17 27C18.6 28.6 18 30.3687 18 30.3687C21 30.3687 24 30.527 24 34C24 36.5 20 38 17.5 36.3687C17.5 38.5 17 40 14 40" stroke="white" stroke-width="4" stroke-linecap="round" stroke-linejoin="round"/>
  <path d="M38 23C38 23 34.5 21 33 22C31.5 23 32 25 32 25C30.5 24 28 25 28 27.5C28 30 30.5 31 33 30C34 33 36.5 33 38 32" stroke="white" stroke-width="4" stroke-linecap="round" stroke-linejoin="round"/>
  <path d="M25 44V44C32.1797 44 38 38.1797 38 31V18C38 10.268 31.732 4 24 4V4" stroke="black" stroke-width="4" stroke-linecap="round" stroke-linejoin="round"/>
  <path d="M23 44V44C15.8203 44 10 38.1797 10 31V18C10 10.268 16.268 4 24 4V4" stroke="black" stroke-width="4" stroke-linecap="round" stroke-linejoin="round"/>
</svg>
